assets/img/logo.svg

<svg class="logo__img" width="68" height="68" xmlns="http://www.w3.org/2000/svg">
  <path d="M0 0h68v68H0V0zm23.5 30H29l-5.1-8.6c1.3-.4 2.3-1 3-1.9.7-1 1-2.1 1-3.5a5.2 5.2 0 0 0-2.3-4.7c-.7-.5-1.5-.8-2.4-1l-2.7-.3H13v20h4.6v-7.9h1.6l4.3 7.9zM55 26.9l-3.3-3c-.4.5-.9 1-1.6 1.4a6.2 6.2 0 0 1-4.7.1c-.7-.3-1.3-.7-1.7-1.2a5.9 5.9 0 0 1-1.6-4.2c0-.9.1-1.6.4-2.3.3-.8.7-1.4 1.2-1.9s1.1-.9 1.7-1.2c.7-.3 1.5-.4 2.3-.4.8 0 1.5.1 2.2.4.7.3 1.3.7 1.7 1.3l3.2-3.1a8.1 8.1 0 0 0-3.2-2.1c-1.3-.5-2.7-.7-4.1-.7a11.4 11.4 0 0 0-7.5 2.7c-.9.9-1.7 1.9-2.2 3.1-.5 1.3-.8 2.7-.8 4.2a10.2 10.2 0 0 0 3 7.2c.9.9 2 1.6 3.3 2.1 1.3.5 2.7.7 4.2.7 1.6 0 3.1-.3 4.3-.8a11 11 0 0 0 3.2-2.3zM23.5 57H29l-5.1-8.6c1.3-.4 2.3-1 3-1.9.7-1 1-2.1 1-3.5a5.2 5.2 0 0 0-2.3-4.7c-.7-.5-1.5-.8-2.4-1l-2.7-.3H13v20h4.6v-7.9h1.6l4.3 7.9zM58 46.9c0-1.8-.3-3.4-1-4.7a9 9 0 0 0-6.4-4.7 20 20 0 0 0-4.2-.5H39v20h7.6a14 14 0 0 0 7.8-2.4 9.8 9.8 0 0 0 2.6-3.1c.7-1.3 1-2.8 1-4.6z" fill="#4A4A4A" fill-rule="nonzero"/>
</svg>

<?xml version="1.0" encoding="UTF-8"?>
<svg width="68px" height="68px" viewBox="0 0 68 68" version="1.1" xmlns="http://www.w3.org/2000/svg" xmlns:xlink="http://www.w3.org/1999/xlink">
    <!-- Generator: Sketch 52.4 (67378) - http://www.bohemiancoding.com/sketch -->
    <title>Shape</title>
    <desc>Created with Sketch.</desc>
    <g id="Page-1" stroke="none" stroke-width="1" fill="none" fill-rule="evenodd">
        <g id="logo" fill="#4A4A4A" fill-rule="nonzero">
            <path d="M0,0 L68,0 L68,68 L0,68 L0,0 Z M23.5,30 L29,30 L23.9,21.4 C25.2,21 26.2,20.4 26.9,19.5 C27.6,18.5 27.9,17.4 27.9,16 C27.9,14.9 27.7,13.9 27.3,13.2 C26.9,12.4 26.3,11.8 25.6,11.3 C24.9,10.8 24.1,10.5 23.2,10.3 C22.3,10.1 21.4,10 20.5,10 L13,10 L13,30 L17.6,30 L17.6,22.1 L19.2,22.1 L23.5,30 Z M55,26.9 L51.7,23.9 C51.3,24.4 50.8,24.9 50.1,25.3 C49.4,25.6 48.6,25.8 47.6,25.8 C46.8,25.8 46.1,25.6 45.4,25.4 C44.7,25.1 44.1,24.7 43.7,24.2 C43.2,23.7 42.8,23 42.5,22.3 C42.2,21.6 42.1,20.8 42.1,20 C42.1,19.1 42.2,18.4 42.5,17.7 C42.8,16.9 43.2,16.3 43.7,15.8 C44.2,15.3 44.8,14.9 45.4,14.6 C46.1,14.3 46.9,14.2 47.7,14.2 C48.5,14.2 49.2,14.3 49.9,14.6 C50.6,14.9 51.2,15.3 51.6,15.9 L54.8,12.8 C54,11.9 52.9,11.2 51.6,10.7 C50.3,10.2 48.9,10 47.5,10 C46.1,10 44.7,10.2 43.4,10.7 C42.1,11.2 41,11.8 40,12.7 C39.1,13.6 38.3,14.6 37.8,15.8 C37.3,17.1 37,18.5 37,20 C37,21.5 37.3,22.8 37.8,24 C38.3,25.3 39.1,26.3 40,27.2 C40.9,28.1 42,28.8 43.3,29.3 C44.6,29.8 46,30 47.5,30 C49.1,30 50.6,29.7 51.8,29.2 C53.1,28.6 54.1,27.8 55,26.9 Z M23.5,57 L29,57 L23.9,48.4 C25.2,48 26.2,47.4 26.9,46.5 C27.6,45.5 27.9,44.4 27.9,43 C27.9,41.9 27.7,40.9 27.3,40.2 C26.9,39.4 26.3,38.8 25.6,38.3 C24.9,37.8 24.1,37.5 23.2,37.3 C22.3,37.1 21.4,37 20.5,37 L13,37 L13,57 L17.6,57 L17.6,49.1 L19.2,49.1 L23.5,57 Z M58,46.9 C58,45.1 57.7,43.5 57,42.2 C56.3,40.9 55.4,39.9 54.3,39.1 C53.3,38.4 52,37.8 50.6,37.5 C49.2,37.2 47.8,37 46.4,37 L39,37 L39,57 L46.6,57 C48,57 49.4,56.8 50.7,56.4 C52.1,56 53.3,55.4 54.4,54.6 C55.5,53.8 56.3,52.7 57,51.5 C57.7,50.2 58,48.7 58,46.9 Z" id="Shape"></path>
        </g>
    </g>
</svg>
